src/assets/icons/ppt.svg

<?xml version="1.0" encoding="UTF-8" standalone="no"?>
<svg
   viewBox="0 0 50 50"
   fill="#5B5B5B"
   version="1.1"
   id="svg1"
   sodipodi:docname="ppt.svg"
   inkscape:version="1.4.2 (f4327f4, 2025-05-13)"
   xmlns:inkscape="http://www.inkscape.org/namespaces/inkscape"
   xmlns:sodipodi="http://sodipodi.sourceforge.net/DTD/sodipodi-0.dtd"
   xmlns="http://www.w3.org/2000/svg"
   xmlns:svg="http://www.w3.org/2000/svg">
  <defs
     id="defs1" />
  <sodipodi:namedview
     id="namedview1"
     pagecolor="#ffffff"
     bordercolor="#000000"
     borderopacity="0.25"
     inkscape:showpageshadow="2"
     inkscape:pageopacity="0.0"
     inkscape:pagecheckerboard="0"
     inkscape:deskcolor="#d1d1d1"
     inkscape:zoom="16.74"
     inkscape:cx="24.970131"
     inkscape:cy="25"
     inkscape:window-width="1920"
     inkscape:window-height="1051"
     inkscape:window-x="-9"
     inkscape:window-y="-9"
     inkscape:window-maximized="1"
     inkscape:current-layer="svg1" />
  <path
     d="m 36,12 v 7 h 7 c 0,-3.867187 -3.132812,-7 -7,-7 z"
     id="path6"
     sodipodi:nodetypes="cccc"
     style="fill:#ffffff;fill-opacity:1" />
  <path
     d="M 8.15625,15.65625 V 34.375 H 12.375 v -6.4375 h 2 c 2.261719,0 4.085938,-0.589844 5.4375,-1.75 1.351563,-1.160156 2.03125,-2.683594 2.03125,-4.5625 0,-3.976562 -2.378906,-5.96875 -7.09375,-5.96875 z m 4.21875,3.25 h 1.65625 c 2.242188,0 3.375,0.953125 3.375,2.875 0,1.964844 -1.132812,2.9375 -3.375,2.9375 H 12.375 Z"
     style="fill:#ffffff;fill-opacity:1"
     id="path5"
     sodipodi:nodetypes="ccccssssccssscc" />
  <path
     d="m 32,6 v 9.0625 C 32.328125,15.015625 32.660156,15 33,15 v 7 h 7 c 0,3.867188 -3.132812,7 -7,7 -0.339844,0 -0.671875,-0.01563 -1,-0.0625 V 35 h 8 v 2 h -8 v 7 h 15 c 1.101563,0 2,-0.898437 2,-2 V 8 C 49,6.898438 48.101563,6 47,6 Z m 4,6 c 3.867188,0 7,3.132813 7,7 h -7 z"
     id="path4"
     sodipodi:nodetypes="cccccsccccccssssccccc"
     style="fill:#ff8a65;fill-opacity:1" />
  <path
     d="m 12.375,18.90625 v 5.8125 h 1.65625 c 2.242188,0 3.375,-0.972656 3.375,-2.9375 0,-1.921875 -1.132812,-2.875 -3.375,-2.875 z"
     id="path3"
     sodipodi:nodetypes="ccsssc"
     style="fill:#e64a19;fill-opacity:1" />
  <path
     d="m 29.03125,0.00976563 c -0.0719,-6.104e-5 -0.145508,0.0078125 -0.21875,0.02148437 l -28,5.3125 C 0.339844,5.433594 0,5.863281 0,6.34375 v 37.3125 c 0,0.480469 0.339844,0.910156 0.8125,1 l 28,5.3125 C 28.875,49.980469 28.9375,50 29,50 c 0.230469,0 0.445313,-0.07031 0.625,-0.21875 C 29.855469,49.589844 30,49.296875 30,49 V 1 C 30,0.703125 29.855469,0.410156 29.625,0.21875 29.452148,0.07519535 29.246948,0.00994874 29.03125,0.00976563 Z M 8.15625,15.65625 H 14.75 c 4.714844,0 7.09375,1.992188 7.09375,5.96875 0,1.878906 -0.679687,3.402344 -2.03125,4.5625 -1.351562,1.160156 -3.175781,1.75 -5.4375,1.75 h -2 V 34.375 H 8.15625 Z"
     style="fill:#e64a19;fill-opacity:1"
     id="path2" />
</svg>

<svg xmlns="http://www.w3.org/2000/svg" xmlns:xlink="http://www.w3.org/1999/xlink" viewBox="0 0 50 50" fill="#5B5B5B">
  <path d="M28.8125 0.03125L0.8125 5.34375C0.339844 5.433594 0 5.863281 0 6.34375L0 43.65625C0 44.136719 0.339844 44.566406 0.8125 44.65625L28.8125 49.96875C28.875 49.980469 28.9375 50 29 50C29.230469 50 29.445313 49.929688 29.625 49.78125C29.855469 49.589844 30 49.296875 30 49L30 1C30 0.703125 29.855469 0.410156 29.625 0.21875C29.394531 0.0273438 29.105469 -0.0234375 28.8125 0.03125 Z M 32 6L32 15.0625C32.328125 15.015625 32.660156 15 33 15L33 22L40 22C40 25.867188 36.867188 29 33 29C32.660156 29 32.328125 28.984375 32 28.9375L32 35L40 35L40 37L32 37L32 44L47 44C48.101563 44 49 43.101563 49 42L49 8C49 6.898438 48.101563 6 47 6 Z M 36 12C39.867188 12 43 15.132813 43 19L36 19 Z M 8.15625 15.65625L14.75 15.65625C19.464844 15.65625 21.84375 17.648438 21.84375 21.625C21.84375 23.503906 21.164063 25.027344 19.8125 26.1875C18.460938 27.347656 16.636719 27.9375 14.375 27.9375L12.375 27.9375L12.375 34.375L8.15625 34.375 Z M 12.375 18.90625L12.375 24.71875L14.03125 24.71875C16.273438 24.71875 17.40625 23.746094 17.40625 21.78125C17.40625 19.859375 16.273438 18.90625 14.03125 18.90625Z" fill="#5B5B5B" />
</svg>
